packages/katcn/src/icons/svg/bookmarks.svg

<svg width="24" height="25" viewBox="0 0 24 25" fill="none" xmlns="http://www.w3.org/2000/svg">
<path fill-rule="evenodd" clip-rule="evenodd" d="M6 5.01123V20.5247C6 21.2314 6.80487 21.5203 7.23991 21.1225L11.2649 17.3403C11.6497 16.9786 12.2495 16.9786 12.6344 17.3403L16.6595 21.1226C16.883 21.3272 17.1805 21.3664 17.4771 21.2409C17.7766 21.1141 17.9696 20.8617 18 20.5843V4.97229C18 4.07721 17.2243 3.31201 16.3813 3.31201H7.71942C6.89718 3.31201 6.08312 4.06187 6 5.01123ZM4.00246 4.90215C4.13612 3.00131 5.73051 1.31201 7.71942 1.31201H16.3813C18.3584 1.31201 20 3.00246 20 4.97229V20.627C20 20.6504 19.9992 20.6738 19.9975 20.6972C19.843 22.8955 17.0758 24.2295 15.3 22.5895L15.2936 22.5836L11.9496 19.4413L8.59935 22.5895C6.81798 24.2346 4 22.8862 4 20.5247V4.97229C4 4.94889 4.00082 4.9255 4.00246 4.90215Z" fill="black"/>
</svg>

<svg xmlns="http://www.w3.org/2000/svg" fill="none" viewBox="0 0 24 25"><path fill="#000" fill-rule="evenodd" d="M6 5.011v15.514c0 .706.805.995 1.24.598l4.025-3.783a1 1 0 0 1 1.37 0l4.025 3.783c.223.204.52.243.817.118.3-.127.493-.38.523-.657V4.972c0-.895-.776-1.66-1.619-1.66H7.72c-.822 0-1.636.75-1.719 1.7m-1.998-.109c.134-1.9 1.729-3.59 3.717-3.59h8.662c1.977 0 3.619 1.69 3.619 3.66v15.655q0 .035-.003.07c-.154 2.198-2.921 3.533-4.697 1.893l-.006-.006-3.344-3.143L8.6 22.59c-1.782 1.645-4.6.296-4.6-2.065V4.972l.002-.07" clip-rule="evenodd"/></svg>
